X:58
T: Gerstebinden
N: Q0135
O: Mitteleuropa, Deutschland
N: Bass - Stimme in einem fuenfstimmigen Satz (cf.) von Ludwig Senfl.
N: Satzbedingte ganztaktige Pausen Weggelassen, Schlussnote gekuerzt.
N: Grundton in der grossen Oktave.
R: Ballade, Beischlaf, Leiden
M: 2/2
L: 1/8
K: G
G2G2G2 | G2G2A2A2 | A4
e4 | =f3ed4 | c4d4 | z6
d2 | e4e2e2- | e2e2=f4 | e8 |
d4c2A2 | B3cd4 | z4
d4 | c2A2B3c | d4z4 | z4
d2d2 | c2B2G4 | z6
G2 | A3Bc2d2- | d2e2d2c2- | c2B2A4 | G4
A2=F2- | F2G2d4 | G8

@@@ Tune index: 1556
